actions/16/media-record.svg

<?xml version="1.0" encoding="UTF-8" standalone="no"?>
<svg
   xmlns:dc="http://purl.org/dc/elements/1.1/"
   xmlns:cc="http://creativecommons.org/ns#"
   xmlns:rdf="http://www.w3.org/1999/02/22-rdf-syntax-ns#"
   xmlns:svg="http://www.w3.org/2000/svg"
   xmlns="http://www.w3.org/2000/svg"
   xmlns:xlink="http://www.w3.org/1999/xlink"
   version="1.1"
   width="16"
   height="16"
   id="svg3033">
  <defs
     id="defs3035">
    <linearGradient
       x1="71.204002"
       y1="6.2375998"
       x2="71.204002"
       y2="44.341"
       id="linearGradient3280"
       gradientUnits="userSpaceOnUse"
       gradientTransform="matrix(0.35135136,0,0,0.35135136,-17.203671,-0.90930025)">
      <stop
         id="stop4013"
         style="stop-color:#ffffff;stop-opacity:1"
         offset="0" />
      <stop
         id="stop4015"
         style="stop-color:#ffffff;stop-opacity:0.23529412"
         offset="0.50775999" />
      <stop
         id="stop4017"
         style="stop-color:#ffffff;stop-opacity:0.15686275"
         offset="0.83456999" />
      <stop
         id="stop4019"
         style="stop-color:#ffffff;stop-opacity:0.39215687"
         offset="1" />
    </linearGradient>
    <linearGradient
       x1="71.204002"
       y1="6.2375998"
       x2="71.204002"
       y2="44.341"
       id="linearGradient3076"
       gradientUnits="userSpaceOnUse"
       gradientTransform="matrix(0.18918919,0,0,-0.18918919,-5.571206,12.797424)">
      <stop
         id="stop4013-2"
         style="stop-color:#ffffff;stop-opacity:1"
         offset="0" />
      <stop
         id="stop4015-4"
         style="stop-color:#ffffff;stop-opacity:0.23529412"
         offset="0.50775999" />
      <stop
         id="stop4017-9"
         style="stop-color:#ffffff;stop-opacity:0.15686275"
         offset="0.83456999" />
      <stop
         id="stop4019-0"
         style="stop-color:#ffffff;stop-opacity:0.39215687"
         offset="1" />
    </linearGradient>
    <radialGradient
       cx="23.896"
       cy="3.99"
       r="20.396999"
       id="radialGradient3079"
       gradientUnits="userSpaceOnUse"
       gradientTransform="matrix(0,0.29307547,-0.38685444,0,9.5435496,-1.6900315)">
      <stop
         id="stop3244-4"
         style="stop-color:#f8b17e;stop-opacity:1"
         offset="0" />
      <stop
         id="stop3246-5"
         style="stop-color:#e35d4f;stop-opacity:1"
         offset="0.26238" />
      <stop
         id="stop3248-0"
         style="stop-color:#c6262e;stop-opacity:1"
         offset="0.66093999" />
      <stop
         id="stop3250-3"
         style="stop-color:#690b54;stop-opacity:1"
         offset="1" />
    </radialGradient>
    <linearGradient
       x1="7.0776"
       y1="3.0816"
       x2="7.0776"
       y2="45.368999"
       id="linearGradient3081"
       gradientUnits="userSpaceOnUse"
       gradientTransform="matrix(0.12279747,0,0,0.12279748,5.0528597,5.0527696)">
      <stop
         id="stop2492-0"
         style="stop-color:#791235;stop-opacity:1"
         offset="0" />
      <stop
         id="stop2494-6"
         style="stop-color:#c7321f;stop-opacity:1"
         offset="1" />
    </linearGradient>
    <radialGradient
       cx="23.896"
       cy="3.99"
       r="20.396999"
       id="radialGradient3087"
       gradientUnits="userSpaceOnUse"
       gradientTransform="matrix(0,0.87967058,-1.1611496,0,12.63299,-21.084396)">
      <stop
         id="stop3244-9"
         style="stop-color:#ffffff;stop-opacity:1"
         offset="0" />
      <stop
         id="stop3246-3"
         style="stop-color:#dddddd;stop-opacity:1"
         offset="0.26238" />
      <stop
         id="stop3248-1"
         style="stop-color:#abacae;stop-opacity:1"
         offset="0.66093999" />
      <stop
         id="stop3250-9"
         style="stop-color:#89898b;stop-opacity:1"
         offset="1" />
    </radialGradient>
    <linearGradient
       x1="18.379"
       y1="44.98"
       x2="18.379"
       y2="3.0816"
       id="linearGradient3089"
       gradientUnits="userSpaceOnUse"
       gradientTransform="matrix(0.36857849,0,0,0.36857855,-0.84588394,-0.84577376)">
      <stop
         id="stop2492-4"
         style="stop-color:#505050;stop-opacity:1"
         offset="0" />
      <stop
         id="stop2494-7"
         style="stop-color:#aaaaaa;stop-opacity:1"
         offset="1" />
    </linearGradient>
    <linearGradient
       x1="71.204002"
       y1="6.2375998"
       x2="71.204002"
       y2="44.341"
       id="linearGradient3014"
       xlink:href="#linearGradient3280"
       gradientUnits="userSpaceOnUse"
       gradientTransform="matrix(0.35135136,0,0,0.35135136,-17.203671,-0.90930025)" />
    <linearGradient
       x1="71.204002"
       y1="6.2375998"
       x2="71.204002"
       y2="44.341"
       id="linearGradient3017"
       xlink:href="#linearGradient3076"
       gradientUnits="userSpaceOnUse"
       gradientTransform="matrix(0.24324325,0,0,-0.24324327,-9.4486935,14.168118)" />
    <radialGradient
       cx="23.896"
       cy="3.99"
       r="20.396999"
       id="radialGradient3020"
       xlink:href="#radialGradient3079"
       gradientUnits="userSpaceOnUse"
       gradientTransform="matrix(0,0.41038696,-0.54170353,0,10.161398,-5.5687319)" />
    <linearGradient
       x1="7.0776"
       y1="3.0816"
       x2="7.0776"
       y2="45.368999"
       id="linearGradient3022"
       xlink:href="#linearGradient3081"
       gradientUnits="userSpaceOnUse"
       gradientTransform="matrix(0.17195052,0,0,0.17195054,3.8731861,3.8730601)" />
    <radialGradient
       cx="23.896"
       cy="3.99"
       r="20.396999"
       id="radialGradient3025"
       xlink:href="#radialGradient3087"
       gradientUnits="userSpaceOnUse"
       gradientTransform="matrix(0,0.87967058,-1.1611496,0,12.63299,-21.084396)" />
    <linearGradient
       x1="18.379"
       y1="44.98"
       x2="18.379"
       y2="3.0816"
       id="linearGradient3027"
       xlink:href="#linearGradient3089"
       gradientUnits="userSpaceOnUse"
       gradientTransform="matrix(0.36857849,0,0,0.36857855,-0.84588394,-0.84577376)" />
    <linearGradient
       x1="71.204002"
       y1="6.2375998"
       x2="71.204002"
       y2="44.341"
       id="linearGradient3280-2"
       gradientUnits="userSpaceOnUse"
       gradientTransform="matrix(0.35135136,0,0,0.35135136,-17.203671,-0.90930025)">
      <stop
         id="stop4013-9"
         style="stop-color:#ffffff;stop-opacity:1"
         offset="0" />
      <stop
         id="stop4015-3"
         style="stop-color:#ffffff;stop-opacity:0.23529412"
         offset="0.50775999" />
      <stop
         id="stop4017-1"
         style="stop-color:#ffffff;stop-opacity:0.15686275"
         offset="0.83456999" />
      <stop
         id="stop4019-9"
         style="stop-color:#ffffff;stop-opacity:0.39215687"
         offset="1" />
    </linearGradient>
    <linearGradient
       x1="71.204002"
       y1="6.2375998"
       x2="71.204002"
       y2="44.341"
       id="linearGradient3046"
       xlink:href="#linearGradient3280-2"
       gradientUnits="userSpaceOnUse"
       gradientTransform="matrix(0.13513513,0,0,0.13513513,-1.6937191,4.5733462)" />
  </defs>
  <metadata
     id="metadata3038">
    <rdf:RDF>
      <cc:Work
         rdf:about="">
        <dc:format>image/svg+xml</dc:format>
        <dc:type
           rdf:resource="http://purl.org/dc/dcmitype/StillImage" />
        <dc:title />
      </cc:Work>
    </rdf:RDF>
  </metadata>
  <path
     d="m 8,0.50183 c -4.1373,0 -7.4982,3.361 -7.4982,7.4982 0,4.1373 3.361,7.4982 7.4982,7.4982 4.1373,0 7.4982,-3.361 7.4982,-7.4982 0,-4.1373 -3.361,-7.4982 -7.4982,-7.4982 z"
     id="path2555-4"
     style="fill:url(#radialGradient3025);stroke:url(#linearGradient3027);stroke-width:1.00365412;stroke-linecap:round;stroke-linejoin:round;stroke-miterlimit:4;stroke-dasharray:none;stroke-dashoffset:0" />
  <path
     d="m 8.0000001,4.5018272 c -1.9301424,0 -3.498173,1.5680306 -3.498173,3.498173 0,1.9301424 1.5680306,3.4981728 3.498173,3.4981728 1.9301419,0 3.4981729,-1.5680304 3.4981729,-3.4981728 0,-1.9301424 -1.568031,-3.498173 -3.4981729,-3.498173 z"
     id="path2555-3"
     style="fill:url(#radialGradient3020);stroke:url(#linearGradient3022);stroke-width:1.00365412;stroke-linecap:round;stroke-linejoin:round;stroke-miterlimit:4;stroke-dasharray:none;stroke-dashoffset:0" />
  <path
     d="M 12.5,8.0001291 C 12.5,5.5147145 10.485157,3.5000001 8.0001287,3.5000001 5.5147144,3.5000001 3.5,5.5148431 3.5,8.0001291 3.5,10.485415 5.5147144,12.5 8.0001287,12.5 10.485157,12.5 12.5,10.485415 12.5,8.0001291 z"
     id="path8655-6-1"
     style="opacity:0.5;color:#000000;fill:none;stroke:url(#linearGradient3017);stroke-width:1;stroke-linecap:round;stroke-linejoin:round;stroke-miterlimit:4;stroke-dasharray:none;stroke-dashoffset:0;enable-background:accumulate" />
  <path
     d="M 14.5,7.9998 C 14.5,11.59 11.59,14.5 8.0001,14.5 4.4102,14.5 1.5,11.59 1.5,7.9998 1.5,4.41 4.4102,1.5 8.0001,1.5 11.59,1.5 14.5,4.41 14.5,7.9998 z"
     id="path8655-6"
     style="opacity:0.8;color:#000000;fill:none;stroke:url(#linearGradient3014);stroke-width:0.99999994;stroke-linecap:round;stroke-linejoin:round;stroke-miterlimit:4;stroke-dasharray:none;stroke-dashoffset:0;enable-background:accumulate" />
  <path
     d="M 10.5,7.999923 C 10.5,9.3807691 9.3807691,10.5 8.0000383,10.5 6.6193076,10.5 5.5,9.3807691 5.5,7.999923 5.5,6.6192307 6.6193076,5.5 8.0000383,5.5 9.3807691,5.5 10.5,6.6192307 10.5,7.999923 z"
     id="path8655-6-4"
     style="opacity:0.5;color:#000000;fill:none;stroke:url(#linearGradient3046);stroke-width:1;stroke-linecap:round;stroke-linejoin:round;stroke-miterlimit:4;stroke-dasharray:none;stroke-dashoffset:0;enable-background:accumulate" />
</svg>

<svg xmlns="http://www.w3.org/2000/svg" xmlns:xlink="http://www.w3.org/1999/xlink" viewBox="0 0 16 16"><defs><linearGradient x1="71.204" y1="6.238" x2="71.204" y2="44.341" id="a" gradientUnits="userSpaceOnUse" gradientTransform="translate(-17.204 -.91) scale(.35135)"><stop offset="0" stop-color="#fff"/><stop offset=".508" stop-color="#fff" stop-opacity=".235"/><stop offset=".835" stop-color="#fff" stop-opacity=".157"/><stop offset="1" stop-color="#fff" stop-opacity=".392"/></linearGradient><linearGradient x1="71.204" y1="6.238" x2="71.204" y2="44.341" id="b" gradientUnits="userSpaceOnUse" gradientTransform="matrix(.1892 0 0 -.1892 -5.57 12.797)"><stop offset="0" stop-color="#fff"/><stop offset=".508" stop-color="#fff" stop-opacity=".235"/><stop offset=".835" stop-color="#fff" stop-opacity=".157"/><stop offset="1" stop-color="#fff" stop-opacity=".392"/></linearGradient><radialGradient cx="23.896" cy="3.99" r="20.397" id="c" gradientUnits="userSpaceOnUse" gradientTransform="matrix(0 .29308 -.38685 0 9.544 -1.69)"><stop offset="0" stop-color="#f8b17e"/><stop offset=".262" stop-color="#e35d4f"/><stop offset=".661" stop-color="#c6262e"/><stop offset="1" stop-color="#690b54"/></radialGradient><linearGradient x1="7.078" y1="3.082" x2="7.078" y2="45.369" id="d" gradientUnits="userSpaceOnUse" gradientTransform="translate(5.053 5.053) scale(.1228)"><stop offset="0" stop-color="#791235"/><stop offset="1" stop-color="#c7321f"/></linearGradient><radialGradient cx="23.896" cy="3.99" r="20.397" id="e" gradientUnits="userSpaceOnUse" gradientTransform="matrix(0 .87967 -1.16115 0 12.633 -21.084)"><stop offset="0" stop-color="#fff"/><stop offset=".262" stop-color="#ddd"/><stop offset=".661" stop-color="#abacae"/><stop offset="1" stop-color="#89898b"/></radialGradient><linearGradient x1="18.379" y1="44.98" x2="18.379" y2="3.082" id="f" gradientUnits="userSpaceOnUse" gradientTransform="translate(-.846 -.846) scale(.36858)"><stop offset="0" stop-color="#505050"/><stop offset="1" stop-color="#aaa"/></linearGradient><linearGradient x1="71.204" y1="6.238" x2="71.204" y2="44.341" id="m" xlink:href="#a" gradientUnits="userSpaceOnUse" gradientTransform="translate(-17.204 -.91) scale(.35135)"/><linearGradient x1="71.204" y1="6.238" x2="71.204" y2="44.341" id="l" xlink:href="#b" gradientUnits="userSpaceOnUse" gradientTransform="matrix(.24324 0 0 -.24324 -9.45 14.168)"/><radialGradient cx="23.896" cy="3.99" r="20.397" id="j" xlink:href="#c" gradientUnits="userSpaceOnUse" gradientTransform="matrix(0 .4104 -.5417 0 10.16 -5.57)"/><linearGradient x1="7.078" y1="3.082" x2="7.078" y2="45.369" id="k" xlink:href="#d" gradientUnits="userSpaceOnUse" gradientTransform="translate(3.873 3.873) scale(.17195)"/><radialGradient cx="23.896" cy="3.99" r="20.397" id="h" xlink:href="#e" gradientUnits="userSpaceOnUse" gradientTransform="matrix(0 .87967 -1.16115 0 12.633 -21.084)"/><linearGradient x1="18.379" y1="44.98" x2="18.379" y2="3.082" id="i" xlink:href="#f" gradientUnits="userSpaceOnUse" gradientTransform="translate(-.846 -.846) scale(.36858)"/><linearGradient x1="71.204" y1="6.238" x2="71.204" y2="44.341" id="g" gradientUnits="userSpaceOnUse" gradientTransform="translate(-17.204 -.91) scale(.35135)"><stop offset="0" stop-color="#fff"/><stop offset=".508" stop-color="#fff" stop-opacity=".235"/><stop offset=".835" stop-color="#fff" stop-opacity=".157"/><stop offset="1" stop-color="#fff" stop-opacity=".392"/></linearGradient><linearGradient x1="71.204" y1="6.238" x2="71.204" y2="44.341" id="n" xlink:href="#g" gradientUnits="userSpaceOnUse" gradientTransform="translate(-1.694 4.573) scale(.13514)"/></defs><path d="M8 .502A7.503 7.503 0 0 0 .502 8 7.503 7.503 0 0 0 8 15.498 7.503 7.503 0 0 0 15.498 8 7.503 7.503 0 0 0 8 .502z" fill="url(#h)" stroke="url(#i)" stroke-width="1.004" stroke-linecap="round" stroke-linejoin="round"/><path d="M8 4.502A3.5 3.5 0 0 0 4.502 8 3.5 3.5 0 0 0 8 11.498 3.5 3.5 0 0 0 11.498 8 3.5 3.5 0 0 0 8 4.502z" fill="url(#j)" stroke="url(#k)" stroke-width="1.004" stroke-linecap="round" stroke-linejoin="round"/><path d="M12.5 8a4.5 4.5 0 1 0-9 0 4.5 4.5 0 0 0 9 0z" opacity=".5" color="#000" fill="none" stroke="url(#l)" stroke-linecap="round" stroke-linejoin="round"/><path d="M14.5 8a6.5 6.5 0 1 1-13 0 6.5 6.5 0 0 1 13 0z" opacity=".8" color="#000" fill="none" stroke="url(#m)" stroke-linecap="round" stroke-linejoin="round"/><path d="M10.5 8a2.5 2.5 0 1 1-5 0 2.5 2.5 0 0 1 5 0z" opacity=".5" color="#000" fill="none" stroke="url(#n)" stroke-linecap="round" stroke-linejoin="round"/></svg>
